!!!COM: Bach, Johann Sebastian
!!!OPR: Joh. Seb. Bachs vierstimmige Choralges‰nge
!!!XEN: Four-part Chorales
!!!OTL: 121. Lobet den Herren
!!!SCT: BWV 374
!!!SCA: Thematisch-systematisches Verzeichnis der musikalischen Werke Johann Sebastian Bach: Bach-Werke-Verzeichnis (Schmieder)
!!!YOR: Bach Gesellschaft Edition xxxix
!!!ENC: Steven Rasmussen
!!!CDT: 1685/3//-1750/7/28/
!!!OCY: Deutschland
!!!YEC: Copyright (c) 1994, 2000 Center for Computer Assisted Research in the Humanities
!!!YEM: Rights to all derivative editions reserved
!!!YEN: United States of America
**kern	**silbe	**kern	**kern	**kern
*I:[SOPRANO]	*I:[SOPRANO]	*I:[ALTO]	*I:[TENORE]	*I:[BASSO]
*clefG2	*	*clefG2	*clefGv2	*clefF4
*k[b-]	*	*k[b-]	*k[b-]	*k[b-]
*d:	*	*d:	*d:	*d:
*M4/4	*	*M4/4	*M4/4	*M4/4
4g	Lo-	8dL	8B-L	8GGL
.	.	8cJ	8AJ	8AAJ
=1	=1	=1	=1	=1
4d	-bet	8B-L	8GL	8BB-L
.	.	8cJ	8AJ	8AAJ
4g	den	4d	4B-	4GG
2g	Her-	8dL	8B-L	2E-
.	.	16cL	16AL	.
.	.	16B-J	16GJJ	.
.	.	8A	4c	.
.	.	8GJ	.	.
=2	=2	=2	=2	=2
2a;	-ren,	2d;	2F#;	2D;
4r	.	4r	4r	4r
4a	lo-	4f#	4d	4D
=3	=3	=3	=3	=3
8b-L	-bet	4g	8dL	4G
8ccJ	.	.	8eJ	.
4dd	den	4a	4f	8FL
.	.	.	.	8GJ
2cc#	Her-	2a	8eL	2A
.	.	.	8d	.
.	.	.	16eL	.
.	.	.	16f#J	.
.	.	.	8gJ	.
=4	=4	=4	=4	=4
2dd;	-ren,	2a;	2f#;	2D;
4b-	denn	8gL	4d	8GL
.	.	8aJ	.	8FJ
4b-	er	4b-	4fn	8E-L
.	.	.	.	8DJ
=5	=5	=5	=5	=5
4cc	ist	4b-	4g	8E-L
.	.	.	.	8CJ
4cc	sehr	4a	4f	8FL
.	.	.	.	8FFJ
2dd	freund-	4.b-	2f	8BB-L
.	.	.	.	8C
.	.	.	.	8D
.	.	8a-	.	8BB-J
=6	=6	=6	=6	=6
2b-;	-lich,	2g;	2e-;	2E-;
4r	.	4r	4r	4r
4dd	es	4b-	4f	4BB-
=7	=7	=7	=7	=7
4cc	ist	8aL	8fL	8FL
.	.	8gJ	8B-J	8GJ
4cc	sehr	8fL	8AL	8AL
.	.	8eJ	8GJ	8B-J
4cc	k√∂st-	8fL	8AL	8AL
.	.	8gJ	8B-J	8GJ
4a	-lich,	8aL	4c	8FL
.	.	8gJ	.	8EJ
=8	=8	=8	=8	=8
4dd	un-	8aL	8cL	8F#L
.	.	8f#J	8B-J	8DJ
4cc	-sern	8gL	8B-L	8EL
.	.	8aJ	8AJ	8F#J
4b-	Gott	8aL	16B-LL	4G
.	.	.	16cJ	.
.	.	8gJ	8dJ	.
4a	zu	8gL	8.dL	4D
.	.	8f#J	.	.
.	.	.	16cJk	.
=9	=9	=9	=9	=9
2g	lo-	8.gL	8B-	2E-
.	.	.	4d	.
.	.	16f#k	.	.
.	.	8g	.	.
.	.	8GJ	8c	.
2a;	-ben,	2d;	2F#;	2D;
=10	=10	=10	=10	=10
4b-	un-	8dL	4G	4GG
.	.	8eJ	.	.
4a	-sern	8fL	4c	4AA
.	.	8f#J	.	.
4g	Gott	8gL	8dL	8BB-L
.	.	8e-J	16cL	8CJ
.	.	.	16B-JJ	.
4f#	zu	4d	4A	8DL
.	.	.	.	8CJ
=11	=11	=11	=11	=11
2g	lo-	8dL	8GL	8BB-L
.	.	8c	8DJ	8AA
.	.	8d	2G	8BB-
.	.	8B-J	.	8GGJ
2a;	-ben,	2d;	.	2D;
.	.	.	4F#;	.
=12	=12	=12	=12	=12
4r	.	4r	4r	4r
4dd	sein	4f#	4A	4D
4b-	Lob	4d	8GL	8GL
.	.	.	8AJ	8FJ
4b-	ist	4g	8B-L	4E-
.	.	.	8cJ	.
=13	=13	=13	=13	=13
4b-	sch√∂n	4f	8dL	8DL
.	.	.	8e-J	8CJ
4dd	und	8fL	8dL	4BB-
.	.	16gL	8B-J	.
.	.	16fJJ	.	.
4cc	lieb-	8eL	8GL	8BB-L
.	.	8f#J	8AJ	8AAJ
4b-	-lich	4g	16B-LL	8GGL
.	.	.	16cJ	.
.	.	.	8dJ	8BB-J
=14	=14	=14	=14	=14
4a	an-	8gL	8e-L	8CL
.	.	8f#J	16dL	8DJ
.	.	.	16cJJ	.
4g	-zu-	4g	8B-L	8E-L
.	.	.	16cL	8DJ
.	.	.	16dJJ	.
2a	-h√∂-	4g	4e-	8CL
.	.	.	.	8AAJ
.	.	4f#	8.dL	4D
.	.	.	16cJk	.
=15	=15	=15	=15	=15
2g;	-ren.	2d;	2B-;	2GG;
4r	.	4r	4r	4r
4g	Lo-	4d	8B-L	8GGL
.	.	.	8AJ	8AAJ
=16	=16	=16	=16	=16
4d	-bet	4d	8GL	8BB-L
.	.	.	8AJ	8AAJ
4g	den	4d	8B-L	8GGL
.	.	.	8AJ	8FFJ
2g	Her-	8dL	4.G	2EE-
.	.	16cL	.	.
.	.	16B-J	.	.
.	.	8A	.	.
.	.	8GJ	8c	.
=17	=17	=17	=17	=17
2a;	-ren,	2d;	2F#;	2DD;
4r	.	4r	4r	4r
4a	lo-	4f#	4d	4D
=18	=18	=18	=18	=18
8b-L	-bet	4g	4d	4G
8ccJ	.	.	.	.
4dd	den	8aL	8AL	8FL
.	.	8eJ	8B-J	8GJ
2cc#	Her-	8eL	2A	4A
.	.	8f#J	.	.
.	.	4g	.	4AA
=19	=19	=19	=19	=19
2.dd;	-ren!	2.f#;	2.A;	2.D;
==|!	==|!	==|!	==|!	==|!
*-	*-	*-	*-	*-
!!!RWG: Key is interpreted using the Humdrum key tool.
!!!END: 1994/07/18
!!!EMD: Converted from MuseData to Humdrum Dec 19, 2000, by Andreas Kornstaedt using muse2kern.
!!!EED: Craig Stuart Sapp
!!!EEV: 2024/03/31
!!!ONB: Some non-unicode characters
